X: 6591
T: Cattle In The Cane
R: reel
M: 4/4
K: Amajor
z8|z6 "Intro" {G}A2|A2 AA A2 AA|A2 AA A2 AB|
|:"A major" ce ef ed cd|ec ef =ge d=c|"G major" B=G B=c de dB|=GB eB dB A=G|
"A" ce ee ef ed|cA cd ea fa|"G"((3f=gf) ec ((3BcB) AF|"E" ((3E^EF) AB "A"A4:|
K:A minor
"A minor" A2 A2 [A2A,2] A, B,|CE DC A,G, ((3A,CA,)|"C major" G,C A,B, CD EG|AB cd ed cB|
"Am" ce ((3BcB) AB AG|EG ED CE DC|"C" EC EG ED CE|"E" DC B,C "Am" A,2 {F}G2|
"Am" A A,A,2 A,2 A,B,|CE DC A,G, ((3A,CA,)|"C" G,C A,B, CD EG|AB cd ed cB|
"Am" cd ea gb ag|eg e^d =dc AG|"C" EG cG Bc AG|"E" ED CB, "A major" [e2A2E2A,2] [e2A2E2A,2]||

